modules/themify-icons/icons/save-alt.svg

<?xml version="1.0" encoding="utf-8"?>
<!-- Generated by IcoMoon.io -->
<!DOCTYPE svg PUBLIC "-//W3C//DTD SVG 1.1//EN" "http://www.w3.org/Graphics/SVG/1.1/DTD/svg11.dtd">
<svg version="1.1" xmlns="http://www.w3.org/2000/svg" xmlns:xlink="http://www.w3.org/1999/xlink" width="17" height="17" viewBox="0 0 17 17">
<g>
</g>
	<path d="M15.5 0h-12.664l-2.836 2.776v12.724c0 0.827 0.673 1.5 1.5 1.5h14c0.827 0 1.5-0.673 1.5-1.5v-14c0-0.827-0.673-1.5-1.5-1.5zM13 1v2h-8v-2h8zM3 16v-1h11v1h-11zM16 15.5c0 0.275-0.224 0.5-0.5 0.5h-0.5v-2h-13v2h-0.5c-0.276 0-0.5-0.225-0.5-0.5v-12.304l2.244-2.196h0.756v3h10v-3h1.5c0.276 0 0.5 0.225 0.5 0.5v14zM8.5 5c-1.93 0-3.5 1.57-3.5 3.5s1.57 3.5 3.5 3.5 3.5-1.57 3.5-3.5-1.57-3.5-3.5-3.5zM8.5 11c-1.378 0-2.5-1.121-2.5-2.5s1.122-2.5 2.5-2.5 2.5 1.121 2.5 2.5-1.122 2.5-2.5 2.5z" fill="#000000" />
</svg>

<svg xmlns="http://www.w3.org/2000/svg" width="17" height="17"><path d="M15.5 0H2.836L0 2.776V15.5c0 .827.673 1.5 1.5 1.5h14c.827 0 1.5-.673 1.5-1.5v-14c0-.827-.673-1.5-1.5-1.5zM13 1v2H5V1h8zM3 16v-1h11v1H3zm13-.5a.5.5 0 0 1-.5.5H15v-2H2v2h-.5a.5.5 0 0 1-.5-.5V3.196L3.244 1H4v3h10V1h1.5a.5.5 0 0 1 .5.5v14zM8.5 5C6.57 5 5 6.57 5 8.5S6.57 12 8.5 12 12 10.43 12 8.5 10.43 5 8.5 5zm0 6C7.122 11 6 9.879 6 8.5S7.122 6 8.5 6 11 7.121 11 8.5 9.878 11 8.5 11z"/></svg>
